packages/foundations/assets/icons/functional/images/devices/mobile_phone_disabled_14.svg

<svg width="14" height="14" viewBox="0 0 14 14" fill="none" xmlns="http://www.w3.org/2000/svg">
<g clip-path="url(#clip0_185_743)">
<path fill-rule="evenodd" clip-rule="evenodd" d="M2.09998 11.1891C2.09998 11.5828 2.44998 11.9109 2.82182 11.9109C2.99682 11.9109 3.14998 11.8453 3.30314 11.6922L11.7031 3.29217C11.8562 3.16092 11.9 2.98592 11.9 2.81092C11.9 2.43908 11.6156 2.08908 11.2218 2.08908C11.025 2.08908 10.85 2.17658 10.7187 2.30783L10.5 2.50467C10.4781 1.89217 9.99682 1.41092 9.38432 1.41092H4.65932C4.02498 1.41092 3.49998 1.91408 3.49998 2.52658V9.50467L2.31873 10.7078C2.16564 10.8609 2.09998 11.0359 2.09998 11.1891ZM4.37498 12.5891H9.38432C10.0187 12.5891 10.5 12.0859 10.5 11.4734V6.46408L9.09998 7.86408V11.2109H5.77498L4.37498 12.5891ZM4.89998 8.10467V2.81092H5.59998V3.51092H8.39998V2.81092H9.09998V3.90467L4.89998 8.10467ZM6.47498 10.5109H7.72182V9.26408L6.47498 10.5109Z" fill="#1A1C1F"/>
</g>
<defs>
<clipPath id="clip0_185_743">
<rect width="14" height="14" fill="white"/>
</clipPath>
</defs>
</svg>

<svg xmlns="http://www.w3.org/2000/svg" width="14" height="14" fill="none"><g clip-path="url(#a)"><path fill="#1A1C1F" fill-rule="evenodd" d="M2.1 11.19c0 .393.35.72.722.72.175 0 .328-.065.481-.218l8.4-8.4c.153-.131.197-.306.197-.481 0-.372-.284-.722-.678-.722a.71.71 0 0 0-.503.219l-.219.197A1.116 1.116 0 0 0 9.384 1.41H4.66c-.634 0-1.159.503-1.159 1.116v6.978l-1.181 1.203a.7.7 0 0 0-.219.481m2.275 1.4h5.01c.634 0 1.115-.504 1.115-1.117V6.464l-1.4 1.4v3.347H5.775zM4.9 8.104V2.81h.7v.7h2.8v-.7h.7v1.094zm1.575 2.406h1.247V9.264z" clip-rule="evenodd"/></g><defs><clipPath id="a"><path fill="#fff" d="M0 0h14v14H0z"/></clipPath></defs></svg>
